phone.svg

<svg fill="currentColor" viewBox="0 0 24 24"><path d="M6.62 10.79c1.44 2.83 3.76 5.15 6.59 6.59l2.2-2.2c.28-.28.67-.36 1.02-.25 1.12.37 2.32.57 3.57.57a1 1 0 0 1 1 1V20a1 1 0 0 1-1 1A17 17 0 0 1 3 4a1 1 0 0 1 1-1h3.5a1 1 0 0 1 1 1c0 1.25.2 2.45.57 3.57.11.35.03.74-.25 1.02z"/></svg>

<svg  viewBox="0 0 24 24" fill="currentColor"><path  d="M6.62,10.79C8.06,13.62 10.38,15.94 13.21,17.38L15.41,15.18C15.69,14.9 16.08,14.82 16.43,14.93C17.55,15.3 18.75,15.5 20,15.5A1,1 0 0,1 21,16.5V20A1,1 0 0,1 20,21A17,17 0 0,1 3,4A1,1 0 0,1 4,3H7.5A1,1 0 0,1 8.5,4C8.5,5.25 8.7,6.45 9.07,7.57C9.18,7.92 9.1,8.31 8.82,8.59L6.62,10.79Z"/></svg>
